images/whatsapp.svg

<svg width="23" height="23" viewBox="0 0 23 23" fill="none" xmlns="http://www.w3.org/2000/svg">
<path d="M11.4998 0.000244141C5.15101 0.000244141 -0.000244141 5.15149 -0.000244141 11.5002C-0.000244141 14.0424 0.822618 16.3839 2.21412 18.2905L0.749029 22.6256L5.31825 21.2007C7.10447 22.3379 9.22518 23.0002 11.4998 23.0002C17.8485 23.0002 22.9998 17.849 22.9998 11.5002C22.9998 5.15149 17.8485 0.000244141 11.4998 0.000244141ZM16.7647 17.6684C14.6775 18.5046 12.1888 17.6951 9.46601 15.6279C6.74321 13.5607 4.95031 10.6506 4.82989 8.48977C4.70947 6.32892 6.46892 5.23846 7.42558 5.24515C8.38225 5.25184 9.43257 8.30914 9.44594 8.77744C9.45932 9.25243 8.27521 10.0954 8.22838 10.4968C8.18155 10.8981 9.84065 12.8784 10.5431 13.4136C11.2388 13.9421 12.6772 14.9589 13.4198 14.8653C14.1557 14.7649 14.644 13.2865 15.1123 13.1928C15.5806 13.0991 18.1362 14.3702 18.3904 14.698C18.6446 15.0325 18.6178 16.9325 16.7647 17.6684Z" fill="#12C868"/>
</svg>

<svg width="23" height="23" fill="none" xmlns="http://www.w3.org/2000/svg"><path d="M11.5 0C5.15 0 0 5.151 0 11.5c0 2.542.823 4.884 2.214 6.79L.75 22.627l4.57-1.425a11.475 11.475 0 0 0 6.18 1.8C17.85 23 23 17.848 23 11.5 23 5.15 17.85 0 11.5 0Zm5.265 17.668c-2.088.837-4.576.027-7.299-2.04C6.743 13.56 4.95 10.65 4.83 8.49c-.12-2.161 1.639-3.252 2.596-3.245.956.007 2.007 3.064 2.02 3.532.013.475-1.17 1.318-1.218 1.72-.046.401 1.613 2.381 2.315 2.917.696.528 2.134 1.545 2.877 1.451.736-.1 1.224-1.579 1.692-1.672.469-.094 3.024 1.177 3.278 1.505.255.335.228 2.235-1.625 2.97Z" fill="#12C868"/></svg>
